client/public/Optimism.svg

<svg width="400" height="400" viewBox="0 0 500 500" fill="none" xmlns="http://www.w3.org/2000/svg">
<circle cx="250" cy="250" r="250" fill="#FF0420"/>
<path d="M177.133 316.446C162.247 316.446 150.051 312.943 140.544 305.938C131.162 298.808 126.471 288.676 126.471 275.541C126.471 272.789 126.784 269.411 127.409 265.408C129.036 256.402 131.35 245.581 134.352 232.947C142.858 198.547 164.812 181.347 200.213 181.347C209.845 181.347 218.476 182.973 226.107 186.225C233.738 189.352 239.742 194.106 244.12 200.486C248.498 206.74 250.688 214.246 250.688 223.002C250.688 225.629 250.375 228.944 249.749 232.947C247.873 244.08 245.621 254.901 242.994 265.408C238.616 282.546 231.048 295.368 220.29 303.874C209.532 312.255 195.147 316.446 177.133 316.446ZM179.76 289.426C186.766 289.426 192.707 287.362 197.586 283.234C202.59 279.106 206.155 272.789 208.281 264.283C211.158 252.524 213.348 242.266 214.849 233.51C215.349 230.883 215.599 228.194 215.599 225.441C215.599 214.058 209.657 208.366 197.774 208.366C190.768 208.366 184.764 210.43 179.76 214.558C174.882 218.687 171.379 225.004 169.253 233.51C167.001 241.891 164.749 252.149 162.498 264.283C161.997 266.784 161.747 269.411 161.747 272.163C161.747 283.672 167.752 289.426 179.76 289.426Z" fill="white"/>
<path d="M259.303 314.57C257.927 314.57 256.863 314.132 256.113 313.256C255.487 312.255 255.3 311.13 255.55 309.879L281.444 187.914C281.694 186.538 282.382 185.412 283.508 184.536C284.634 183.661 285.822 183.223 287.073 183.223H336.985C350.87 183.223 362.003 186.1 370.384 191.854C378.891 197.609 383.144 205.927 383.144 216.81C383.144 219.937 382.769 223.19 382.018 226.567C378.891 240.953 372.574 251.586 363.067 258.466C353.685 265.346 340.8 268.786 324.413 268.786H299.082L290.451 309.879C290.2 311.255 289.512 312.38 288.387 313.256C287.261 314.132 286.072 314.57 284.822 314.57H259.303ZM325.727 242.892C330.98 242.892 335.546 241.453 339.424 238.576C343.427 235.699 346.054 231.571 347.305 226.192C347.68 224.065 347.868 222.189 347.868 220.563C347.868 216.935 346.805 214.183 344.678 212.307C342.551 210.305 338.924 209.305 333.795 209.305H311.278L304.148 242.892H325.727Z" fill="white"/>
</svg>

<?xml version="1.0" encoding="UTF-8"?>
<svg id="Layer_1" data-name="Layer 1" xmlns="http://www.w3.org/2000/svg" viewBox="0 0 500 500">
  <defs>
    <style>
      .cls-1 {
        fill: #ff0420;
      }

      .cls-1, .cls-2 {
        stroke-width: 0px;
      }

      .cls-2 {
        fill: #fff;
      }
    </style>
  </defs>
  <circle class="cls-1" cx="250" cy="250" r="250"/>
  <path class="cls-2" d="M177.13,316.45c-14.89,0-27.08-3.5-36.59-10.51-9.38-7.13-14.07-17.26-14.07-30.4,0-2.75.31-6.13.94-10.13,1.63-9.01,3.94-19.83,6.94-32.46,8.51-34.4,30.46-51.6,65.86-51.6,9.63,0,18.26,1.63,25.89,4.88,7.63,3.13,13.64,7.88,18.01,14.26,4.38,6.25,6.57,13.76,6.57,22.52,0,2.63-.31,5.94-.94,9.95-1.88,11.13-4.13,21.95-6.75,32.46-4.38,17.14-11.95,29.96-22.7,38.47-10.76,8.38-25.14,12.57-43.16,12.57ZM179.76,289.43c7.01,0,12.95-2.06,17.83-6.19,5-4.13,8.57-10.45,10.7-18.95,2.88-11.76,5.07-22.02,6.57-30.77.5-2.63.75-5.32.75-8.07,0-11.38-5.94-17.07-17.82-17.07-7.01,0-13.01,2.06-18.01,6.19-4.88,4.13-8.38,10.45-10.51,18.95-2.25,8.38-4.5,18.64-6.76,30.77-.5,2.5-.75,5.13-.75,7.88,0,11.51,6.01,17.26,18.01,17.26Z"/>
  <path class="cls-2" d="M259.3,314.57c-1.38,0-2.44-.44-3.19-1.31-.63-1-.81-2.13-.56-3.38l25.89-121.96c.25-1.38.94-2.5,2.06-3.38,1.13-.88,2.31-1.31,3.57-1.31h49.91c13.89,0,25.02,2.88,33.4,8.63,8.51,5.75,12.76,14.07,12.76,24.96,0,3.13-.38,6.38-1.13,9.76-3.13,14.39-9.44,25.02-18.95,31.9-9.38,6.88-22.27,10.32-38.65,10.32h-25.33l-8.63,41.09c-.25,1.38-.94,2.5-2.06,3.38-1.13.88-2.32,1.31-3.57,1.31h-25.52ZM325.73,242.89c5.25,0,9.82-1.44,13.7-4.32,4-2.88,6.63-7.01,7.88-12.38.38-2.13.56-4,.56-5.63,0-3.63-1.06-6.38-3.19-8.26-2.13-2-5.75-3-10.88-3h-22.52l-7.13,33.59h21.58Z"/>
</svg>
